img/ui/icons/copy.svg.svg

<svg width="25" height="25" viewBox="0 0 25 25" fill="none" xmlns="http://www.w3.org/2000/svg">
<path d="M6.03711 11.813C6.03711 8.98499 6.03711 7.56999 6.91611 6.69199C7.79411 5.81299 9.20911 5.81299 12.0371 5.81299H15.0371C17.8651 5.81299 19.2801 5.81299 20.1581 6.69199C21.0371 7.56999 21.0371 8.98499 21.0371 11.813V16.813C21.0371 19.641 21.0371 21.056 20.1581 21.934C19.2801 22.813 17.8651 22.813 15.0371 22.813H12.0371C9.20911 22.813 7.79411 22.813 6.91611 21.934C6.03711 21.056 6.03711 19.641 6.03711 16.813V11.813Z" stroke="black" stroke-width="1.5"/>
<path d="M6.03711 19.813C5.24146 19.813 4.4784 19.4969 3.91579 18.9343C3.35318 18.3717 3.03711 17.6086 3.03711 16.813V10.813C3.03711 7.04199 3.03711 5.15599 4.20911 3.98499C5.38111 2.81399 7.26611 2.81299 11.0371 2.81299H15.0371C15.8328 2.81299 16.5958 3.12906 17.1584 3.69167C17.721 4.25428 18.0371 5.01734 18.0371 5.81299" stroke="black" stroke-width="1.5"/>
</svg>

<svg width="25" height="25" fill="none" xmlns="http://www.w3.org/2000/svg"><path d="M6.037 11.813c0-2.828 0-4.243.88-5.121.877-.879 2.292-.879 5.12-.879h3c2.828 0 4.243 0 5.121.879.88.878.88 2.293.88 5.121v5c0 2.828 0 4.243-.88 5.121-.878.879-2.293.879-5.12.879h-3c-2.829 0-4.244 0-5.122-.879-.879-.878-.879-2.293-.879-5.121v-5Z" stroke="#000" stroke-width="1.5"/><path d="M6.037 19.813a3 3 0 0 1-3-3v-6c0-3.771 0-5.657 1.172-6.828 1.172-1.171 3.057-1.172 6.828-1.172h4a3 3 0 0 1 3 3" stroke="#000" stroke-width="1.5"/></svg>
